**kern	**kern
*clefF4	*clefG2
*k[]	*k[]
*M3/8	*M3/8
=1	=1
4.r	4r
.	16ee
.	16dd#
=2	=2
4.r	16ee
.	16dd#
.	16ee
.	16b
.	16dd
.	16cc
=3	=3
16AA	8a
16E	.
16A	16r
8.r	16c
.	16e
.	16a
=4	=4
16EE	8b
16E	.
16G#	16r
8.r	16e
.	16g#
.	16b
=5	=5
16AA	8cc
16E	.
16A	16r
8.r	16e
.	16ee
.	16dd#
=6	=6
4.r	16ee
.	16dd#
.	16ee
.	16b
.	16dd
.	16cc
=7	=7
16AA	8a
16E	.
16A	16r
8.r	16c
.	16e
.	16a
=8	=8
16EE	8b
16E	.
16G#	16r
8.r	16e
.	16cc
.	16b
=9	=9
16AA	4a
16E	.
16A	.
8.r	.
.	16ee
.	16dd#
=10	=10
4.r	16ee
.	16dd#
.	16ee
.	16b
.	16dd
.	16cc
=11	=11
16AA	8a
16E	.
16A	16r
8.r	16c
.	16e
.	16a
=12	=12
16EE	8b
16E	.
16G#	16r
8.r	16e
.	16g#
.	16b
=13	=13
16AA	8cc
16E	.
16A	16r
8.r	16e
.	16ee
.	16dd#
=14	=14
4.r	16ee
.	16dd#
.	16ee
.	16b
.	16dd
.	16cc
=15	=15
16AA	8a
16E	.
16A	16r
8.r	16c
.	16e
.	16a
=16	=16
16EE	8b
16E	.
16G#	16r
8.r	16e
.	16cc
.	16b
=17	=17
16AA	8a
16E	.
16A	16r
8.r	16b
.	16cc
.	16dd
=18	=18
16C	8.ee
16G	.
16c	.
8.r	16g
.	16ff
.	16ee
=19	=19
16GG	8.dd
16G	.
16B	.
8.r	16f
.	16ee
.	16dd
=20	=20
16AA	8.cc
16E	.
16A	.
8.r	16e
.	16dd
.	16cc
=21	=21
16EE	8b
16E	.
16e	16r
8r	16e
.	16ee
16e	16r
=22	=22
16ee	16r
8r	16ee
.	16eee
16dd#	8r
16ee	.
16r	16dd#
=23	=23
16r	8ee
16dd#	.
16ee	16r
8.r	16dd#
.	16ee
.	16dd#
=24	=24
4.r	16ee
.	16dd#
.	16ee
.	16b
.	16dd
.	16cc
=25	=25
16AA	8a
16E	.
16A	16r
8.r	16c
.	16e
.	16a
=26	=26
16EE	8b
16E	.
16G#	16r
8.r	16e
.	16g#
.	16b
=27	=27
16AA	8cc
16E	.
16A	16r
8.r	16e
.	16ee
.	16dd#
=28	=28
4.r	16ee
.	16dd#
.	16ee
.	16b
.	16dd
.	16cc
=29	=29
16AA	8a
16E	.
16A	16r
8.r	16c
.	16e
.	16a
=30	=30
16EE	8b
16E	.
16G#	16r
8.r	16e
.	16cc
.	16b
=31	=31
16AA	8a
16E	.
16A	16r
8.r	16b
.	16cc
.	16dd
=32	=32
16C	8.ee
16G	.
16c	.
8.r	16g
.	16ff
.	16ee
=33	=33
16GG	8.dd
16G	.
16B	.
8.r	16f
.	16ee
.	16dd
=34	=34
16AA	8.cc
16E	.
16A	.
8.r	16e
.	16dd
.	16cc
=35	=35
16EE	8b
16E	.
16e	16r
8r	16e
.	16ee
16e	16r
=36	=36
16ee	16r
8r	16ee
.	16eee
16dd#	8r
16ee	.
16r	16dd#
=37	=37
16r	8ee
16dd#	.
16ee	16r
8.r	16dd#
.	16ee
.	16dd#
=38	=38
4.r	16ee
.	16dd#
.	16ee
.	16b
.	16dd
.	16cc
=39	=39
16AA	8a
16E	.
16A	16r
8.r	16c
.	16e
.	16a
=40	=40
16EE	8b
16E	.
16G#	16r
8.r	16e
.	16g#
.	16b
=41	=41
16AA	8cc
16E	.
16A	16r
8.r	16e
.	16ee
.	16dd#
=42	=42
4.r	16ee
.	16dd#
.	16ee
.	16b
.	16dd
.	16cc
=43	=43
16AA	8a
16E	.
16A	16r
8.r	16c
.	16e
.	16a
=44	=44
16EE	8b
16E	.
16G#	16r
8.r	16e
.	16cc
.	16b
=45	=45
16AA	8a
16E	.
16A	16r
16A# 16c	16e 16cc
16A 16c	16f 16cc
16G 16A# 16c	16e 16g 16cc
=46	=46
16F	4cc
16A	.
16c	.
16A	.
16c	16.ff
16A	.
.	32ee
=47	=47
16F	8ee
16A#	.
16d	8dd
16A#	.
16d	16.aa#
16A#	.
.	32aa
=48	=48
16F	16aa
16e	16gg
16F 16G 16A#	16ff
16e	16ee
16F 16G 16A#	16dd
16e	16cc
=49	=49
16F	8a#
16A	.
16c	8a
16A	.
16c	32a
.	32g
16A	32a
.	32a#
=50	=50
16F	4cc
16A	.
16c	.
16A	.
16c	16dd
16A	16dd#
=51	=51
16E	8.ee
16A	.
16c	.
16A	16ee
16D 16d	16ff
16F	16a
=52	=52
16G	4cc
16e	.
16G	.
16e	.
16G	16.dd
16f	.
.	32b
=53	=53
8c 8e	32cc
.	32gg
.	32g
.	32gg
16r	32a
.	32gg
16f 16g	32b
.	32gg
16e 16g	32cc
.	32gg
16d 16f 16g	32dd
.	32gg
=54	=54
8c 8e 8g	32ee
.	32gg
.	32ccc
.	32bb
8F 8A	32aa
.	32gg
.	32ff
.	32ee
8G 8B	32dd
.	32gg
.	32ff
.	32dd
=55	=55
8c	32cc
.	32gg
.	32g
.	32gg
16r	32a
.	32gg
16f 16g	32b
.	32gg
16e 16g	32cc
.	32gg
16d 16f 16g	32dd
.	32gg
=56	=56
8c 8e 8g	32ee
.	32gg
.	32ccc
.	32bb
8F 8A	32aa
.	32gg
.	32ff
.	32ee
8G 8B	32dd
.	32gg
.	32ff
.	32dd
=57	=57
8G# 8B	32ee
.	32ff
.	32ee
.	32dd#
4r	32ee
.	32b
.	32ee
.	32dd#
.	32ee
.	32b
.	32ee
.	32dd#
=58	=58
4.r	8.ee
.	16b
.	16ee
.	16dd#
=59	=59
4.r	8.ee
.	16b
.	16ee
.	16dd#
=60	=60
4.r	16ee
.	16dd#
.	16ee
.	16dd#
.	16ee
.	16dd#
=61	=61
4.r	16ee
.	16dd#
.	16ee
.	16b
.	16dd
.	16cc
=62	=62
16AA	8a
16E	.
16A	16r
8.r	16c
.	16e
.	16a
=63	=63
16EE	8b
16E	.
16G#	16r
8.r	16e
.	16g#
.	16b
=64	=64
16AA	8cc
16E	.
16A	16r
8.r	16e
.	16ee
.	16dd#
=65	=65
4.r	16ee
.	16dd#
.	16ee
.	16b
.	16dd
.	16cc
=66	=66
16AA	8a
16E	.
16A	16r
8.r	16c
.	16e
.	16a
=67	=67
16EE	8b
16E	.
16G#	16r
8.r	16e
.	16cc
.	16b
=68	=68
16AA	8a
16E	.
16A	16r
8.r	16b
.	16cc
.	16dd
=69	=69
16C	8.ee
16G	.
16c	.
8.r	16g
.	16ff
.	16ee
=70	=70
16GG	8.dd
16G	.
16B	.
8.r	16f
.	16ee
.	16dd
=71	=71
16AA	8.cc
16E	.
16A	.
8.r	16e
.	16dd
.	16cc
=72	=72
16EE	8b
16E	.
16e	16r
8r	16e
.	16ee
16e	16r
=73	=73
16ee	16r
8r	16ee
.	16eee
16dd#	8r
16ee	.
16r	16dd#
=74	=74
16r	16ee
16dd#	8r
16ee	.
8.r	16dd#
.	16ee
.	16dd#
=75	=75
4.r	16ee
.	16dd#
.	16ee
.	16b
.	16dd
.	16cc
=76	=76
16AA	8a
16E	.
16A	16r
8.r	16c
.	16e
.	16a
=77	=77
16EE	8b
16E	.
16G#	16r
8.r	16e
.	16g#
.	16b
=78	=78
16AA	8cc
16E	.
16A	16r
8.r	16e
.	16ee
.	16dd#
=79	=79
4.r	16ee
.	16dd#
.	16ee
.	16b
.	16dd
.	16cc
=80	=80
16AA	8a
16E	.
16A	16r
8.r	16c
.	16e
.	16a
=81	=81
16EE	8b
16E	.
16G#	16r
8.r	16e
.	16cc
.	16b
=82	=82
16AA	8a
16AA	.
16AA	4r
16AA	.
16AA	.
16AA	.
=83	=83
16AA	4.e 4.g 4.a# 4.cc#
16AA	.
16AA	.
16AA	.
16AA	.
16AA	.
=84	=84
16AA	4f 4a 4dd
16AA	.
16AA	.
16AA	.
16AA	16cc# 16ee
16AA	16dd 16ff
=85	=85
16AA	4g# 4dd 4ff
16AA	.
16AA	.
16AA	.
16AA	8g# 8dd 8ff
16AA	.
=86	=86
16AA	4.a 4.cc 4.ee
16AA	.
16AA	.
16AA	.
16AA	.
16AA	.
=87	=87
16DD 16AA	4f 4dd
16DD 16AA	.
16DD 16AA	.
16DD 16AA	.
16DD 16AA	16e 16cc
16DD 16AA	16d 16b
=88	=88
16DD# 16AA	4c 4f# 4a
16DD# 16AA	.
16DD# 16AA	.
16DD# 16AA	.
16DD# 16AA	8c 8a
16DD# 16AA	.
=89	=89
16EE 16AA	8c 8a
16EE 16AA	.
16EE 16AA	8e 8cc
16EE 16AA	.
16EE 16GG#	8d 8b
16EE 16GG#	.
=90	=90
16AAA 16AA	4.c 4.a
16AA	.
16AA	.
16AA	.
16AA	.
16AA	.
=91	=91
16AA	4.e 4.g 4.a# 4.cc#
16AA	.
16AA	.
16AA	.
16AA	.
16AA	.
=92	=92
16AA	4f 4a 4dd
16AA	.
16AA	.
16AA	.
16AA	16cc# 16ee
16AA	16dd 16ff
=93	=93
16AA	4dd 4ff
16AA	.
16AA	.
16AA	.
16AA	8dd 8ff
16AA	.
=94	=94
16AA#	4.dd 4.ff
16AA#	.
16AA#	.
16AA#	.
16AA#	.
16AA#	.
=95	=95
16AA#	4g 4dd#
16AA#	.
16AA#	.
16AA#	.
16AA#	16f 16dd
16AA#	16d# 16cc
=96	=96
16AA#	4d 4f 4a#
16AA#	.
16AA#	.
16AA#	.
16AA#	8d 8f 8a
16AA#	.
=97	=97
16BB	4d 4f 4g#
16BB	.
16BB	.
16BB	.
16BB	8d 8f 8g#
16BB	.
=98	=98
4C	4c 4e 4a
8r	8r
=99	=99
8E 8G#	8e 8b
4r	4r
=100	=100
8AAA	24A
.	24c
.	24e
8r	24a
.	24cc
.	24ee
8A 8c 8e	24dd
.	24cc
.	24b
=101	=101
8A 8c 8e	24a
.	24cc
.	24ee
8r	24aa
.	24ccc
.	24eee
8A 8c 8e	24ddd
.	24ccc
.	24bb
=102	=102
8A 8c 8e	24aa
.	24ccc
.	24eee
8r	24aaa
.	24cccc
.	24eeee
8A 8c 8e	24dddd
.	24cccc
.	24bbb
=103	=103
8A 8c 8e	24aaa#
.	24aaa
.	24ggg#
4r	24ggg
.	24fff#
.	24fff
.	24eee
.	24ddd#
.	24ddd
=104	=104
4.r	24ccc#
.	24ccc
.	24bb
.	24aa#
.	24aa
.	24gg#
.	24gg
.	24ff#
.	24ff
=105	=105
4.r	16ee
.	16dd#
.	16ee
.	16b
.	16dd
.	16cc
=106	=106
16AA	8a
16E	.
16A	16r
8.r	16c
.	16e
.	16a
=107	=107
16EE	8b
16E	.
16G#	16r
8.r	16e
.	16g#
.	16b
=108	=108
16AA	8cc
16E	.
16A	16r
8.r	16e
.	16ee
.	16dd#
=109	=109
4.r	16ee
.	16dd#
.	16ee
.	16b
.	16dd
.	16cc
=110	=110
16AA	8a
16E	.
16A	16r
8.r	16c
.	16e
.	16a
=111	=111
16EE	8b
16E	.
16G#	16r
8.r	16e
.	16cc
.	16b
=112	=112
16AA	8a
16E	.
16A	16r
8.r	16b
.	16cc
.	16dd
=113	=113
16C	8.ee
16G	.
16c	.
8.r	16g
.	16ff
.	16ee
=114	=114
16GG	8.dd
16G	.
16B	.
8.r	16f
.	16ee
.	16dd
=115	=115
16AA	8.cc
16E	.
16A	.
8.r	16e
.	16dd
.	16cc
=116	=116
16EE	8b
16E	.
16e	16r
8r	16e
.	16ee
16e	16r
=117	=117
16ee	16r
8r	16ee
.	16eee
16dd#	8r
16ee	.
16r	16dd#
=118	=118
16r	16ee
16dd#	8r
16ee	.
8.r	16dd#
.	16ee
.	16dd#
=119	=119
4.r	16ee
.	16dd#
.	16ee
.	16b
.	16dd
.	16cc
=120	=120
16AA	8a
16E	.
16A	16r
8.r	16c
.	16e
.	16a
=121	=121
16EE	8b
16E	.
16G#	16r
8.r	16e
.	16g#
.	16b
=122	=122
16AA	8cc
16E	.
16A	16r
8.r	16e
.	16ee
.	16dd#
=123	=123
4.r	16ee
.	16dd#
.	16ee
.	16b
.	16dd
.	16cc
=124	=124
16AA	8a
16E	.
16A	16r
8.r	16c
.	16e
.	16a
=125	=125
16EE	8b
16E	.
16G#	16r
8.r	16e
.	16cc
.	16b
=126	=126
8AAA 8AA	8a
==	==
*-	*-
